X: 1
T: Waiting for Nancy
C: Curt Bouterse (1972)
S: Portland Collection v.1 p.206
R: reel
Z: 2016 John Chambers <jc:trillian.mit.edu>
M: C|
L: 1/8
K: D
|:\
"A7"b2a2 b2a2 | b2a2 e2ef |\
[1,3 "G"g2f2 e2ef | gagf e4 :|\
[2,4 "G"g2f2 "A7"edc2 | "D"d3c d4 :|
|:\
"C"=c4 e2ef | g2f2 e2ef |\
[1,3 g2f2 e2g2- | g2f2 e4 :|\
[2,4 gagf "A7"edc2 | "D"d3c d4 :|
